packages/icons/svg/Media_ReduceScreen_16px.svg

<svg xmlns="http://www.w3.org/2000/svg" viewBox="0 0 16 16"><path d="M5.7 9H3a1 1 0 000 2h2v2a1 1 0 002 0v-2.7A1.3 1.3 0 005.7 9zM6 2a1 1 0 00-1 1v2H3a1 1 0 000 2h2.7A1.3 1.3 0 007 5.7V3a1 1 0 00-1-1zM10.3 7H13a1 1 0 000-2h-2V3a1 1 0 00-2 0v2.7A1.3 1.3 0 0010.3 7zM13 9h-2.7A1.3 1.3 0 009 10.3V13a1 1 0 002 0v-2h2a1 1 0 000-2z"/></svg>

<svg xmlns="http://www.w3.org/2000/svg" viewBox="0 0 16 16"><defs></defs><g id="Icon"><g id="Name-2" ><path  d="M5.7,9H3a1,1,0,0,0,0,2H5v2a1,1,0,0,0,2,0V10.3A1.3,1.3,0,0,0,5.7,9Z"/><path  d="M6,2A1,1,0,0,0,5,3V5H3A1,1,0,0,0,3,7H5.7A1.3,1.3,0,0,0,7,5.7H7V3A1,1,0,0,0,6,2Z"/><path  d="M10.3,7H13a1,1,0,0,0,0-2H11V3A1,1,0,0,0,9,3V5.7A1.3,1.3,0,0,0,10.3,7Z"/><path  d="M13,9H10.3A1.3,1.3,0,0,0,9,10.3H9V13a1,1,0,0,0,2,0V11h2a1,1,0,0,0,0-2Z"/></g></g></svg>
